icons/walk-fill.svg

<svg viewBox="0 0 24 24" fill="currentColor" xmlns="http://www.w3.org/2000/svg">
    <path d="M7.61713 8.71233L10.8222 6.38373C11.174 6.12735 11.6087 5.98543 12.065 6.0008C13.1764 6.02813 14.1524 6.75668 14.4919 7.82036C14.6782 8.40431 14.8481 8.79836 15.0017 9.0025C15.914 10.2155 17.3655 11 19.0002 11V13C16.8255 13 14.8825 12.0083 13.5986 10.4526L12.901 14.4085L14.9621 16.138L17.1853 22.246L15.3059 22.93L13.266 17.3256L9.87576 14.4808C9.32821 14.0382 9.03139 13.3192 9.16231 12.5767L9.67091 9.6923L8.99407 10.1841L6.86706 13.1116L5.24902 11.9361L7.60016 8.7L7.61713 8.71233ZM13.5002 5.5C12.3956 5.5 11.5002 4.60457 11.5002 3.5C11.5002 2.39543 12.3956 1.5 13.5002 1.5C14.6047 1.5 15.5002 2.39543 15.5002 3.5C15.5002 4.60457 14.6047 5.5 13.5002 5.5ZM10.5286 18.6813L7.31465 22.5116L5.78257 21.226L8.75774 17.6803L9.50426 15.5L11.2954 17L10.5286 18.6813Z"/>
</svg>

<svg xmlns="http://www.w3.org/2000/svg" viewBox="0 0 24 24">
    <g>
        <path fill="none" d="M0 0h24v24H0z"/>
        <path d="M7.617 8.712l3.205-2.328A1.995 1.995 0 0 1 12.065 6a2.616 2.616 0 0 1 2.427 1.82c.186.583.356.977.51 1.182A4.992 4.992 0 0 0 19 11v2a6.986 6.986 0 0 1-5.402-2.547l-.697 3.955 2.061 1.73 2.223 6.108-1.88.684-2.04-5.604-3.39-2.845a2 2 0 0 1-.713-1.904l.509-2.885-.677.492-2.127 2.928-1.618-1.176L7.6 8.7l.017.012zM13.5 5.5a2 2 0 1 1 0-4 2 2 0 0 1 0 4zm-2.972 13.181l-3.214 3.83-1.532-1.285 2.976-3.546.746-2.18 1.791 1.5-.767 1.681z"/>
    </g>
</svg>
